X:13036
T:Meillionen
R:Barndance
C:Trad.
O:Wales
Z:Paul Hardy's Session Tunebook 2015 (see www.paulhardy.net). Creative Commons cc by-nc-sa licenced.
M:4/4
L:1/8
Q:1/4=120
K:Gmaj
|:D2|"G"G4 B2 AG|"D"FGAB c2 c2|"G"B4 cBAG|"D"F3 G ABcA|"G"G2 d2 B2 AG|"D"FGAB c2 dc|"G"B2 cB "D7"A3 G|"G"G6:|
|:"G"Bc|"D"d2 G2 F2 G2|A4 A2 Bc|d4 cBAG|FGAB cAGF|"G"G3 A B2 c2|"D7"dcBA B2 AG|
"C"c3 d e2 d2|cdcB A2 Bc|"G"B4 cBAG|"D7"FGAB c2 dc|"G"B4 "D7"A3 G|"G"G6:|

